assets/icons/presets.svg

<svg width="30" height="30" viewBox="0 0 30 30" fill="none" xmlns="http://www.w3.org/2000/svg">
<path fill-rule="evenodd" clip-rule="evenodd" d="M24.262 3C24.9867 2.99868 25.6822 3.28521 26.1956 3.79659C26.7091 4.30797 26.9984 5.00234 27 5.727V13.364C26.9984 14.0887 26.7091 14.783 26.1956 15.2944C25.6822 15.8058 24.9867 16.0923 24.262 16.091H19.333C18.6083 16.0923 17.9128 15.8058 17.3994 15.2944C16.8859 14.783 16.5966 14.0887 16.595 13.364V5.727C16.5966 5.00234 16.8859 4.30797 17.3994 3.79659C17.9128 3.28521 18.6083 2.99868 19.333 3H24.262ZM14.405 16.636C14.4034 15.9113 14.1141 15.217 13.6006 14.7056C13.0872 14.1942 12.3917 13.9077 11.667 13.909H6.738C6.01334 13.9077 5.31781 14.1942 4.80436 14.7056C4.29092 15.217 4.00159 15.9113 4 16.636V24.273C4.00159 24.9977 4.29092 25.692 4.80436 26.2034C5.31781 26.7148 6.01334 27.0013 6.738 27H11.667C12.3917 27.0013 13.0872 26.7148 13.6006 26.2034C14.1141 25.692 14.4034 24.9977 14.405 24.273V16.636ZM27 21C26.9984 20.2753 26.7091 19.581 26.1956 19.0696C25.6822 18.5582 24.9867 18.2717 24.262 18.273H19.333C18.6083 18.2717 17.9128 18.5582 17.3994 19.0696C16.8859 19.581 16.5966 20.2753 16.595 21V24.273C16.5966 24.9977 16.8859 25.692 17.3994 26.2034C17.9128 26.7148 18.6083 27.0013 19.333 27H24.262C24.9867 27.0013 25.6822 26.7148 26.1956 26.2034C26.7091 25.692 26.9984 24.9977 27 24.273V21ZM11.667 15.546H6.738C6.176 15.546 5.713 15.966 5.65 16.509L5.643 16.636V24.273C5.643 24.833 6.066 25.293 6.61 25.356L6.738 25.364H11.667C12.228 25.364 12.691 24.942 12.755 24.4L12.762 24.273V16.636C12.762 16.076 12.339 15.616 11.794 15.553L11.667 15.545V15.546ZM19.333 19.909H24.262L24.39 19.916C24.934 19.979 25.357 20.44 25.357 21V24.273L25.35 24.4C25.3182 24.666 25.1898 24.9111 24.9893 25.0888C24.7887 25.2665 24.5299 25.3644 24.262 25.364H19.333L19.206 25.356C18.94 25.3254 18.6945 25.1982 18.5161 24.9986C18.3376 24.7989 18.2387 24.5408 18.238 24.273V21L18.246 20.873C18.2778 20.6071 18.406 20.3622 18.6064 20.1845C18.8067 20.0068 19.0652 19.9088 19.333 19.909ZM19.333 4.636H24.262L24.39 4.644C24.934 4.707 25.357 5.168 25.357 5.727V13.364L25.35 13.491C25.3179 13.7569 25.1895 14.0017 24.989 14.1792C24.7884 14.3567 24.5298 14.4545 24.262 14.454H19.333L19.206 14.447C18.94 14.4164 18.6945 14.2892 18.5161 14.0896C18.3376 13.8899 18.2387 13.6318 18.238 13.364V5.727L18.246 5.6C18.2778 5.33414 18.406 5.08917 18.6064 4.91151C18.8067 4.73384 19.0652 4.63582 19.333 4.636ZM11.667 3C12.3917 2.99868 13.0872 3.28521 13.6006 3.79659C14.1141 4.30797 14.4034 5.00234 14.405 5.727V9C14.4034 9.72467 14.1141 10.419 13.6006 10.9304C13.0872 11.4418 12.3917 11.7283 11.667 11.727H6.738C6.01334 11.7283 5.31781 11.4418 4.80436 10.9304C4.29092 10.419 4.00159 9.72467 4 9V5.727C4.00159 5.00234 4.29092 4.30797 4.80436 3.79659C5.31781 3.28521 6.01334 2.99868 6.738 3H11.667ZM6.738 4.636H11.667L11.794 4.644C12.339 4.707 12.762 5.168 12.762 5.727V9L12.755 9.127C12.7232 9.39304 12.5948 9.63815 12.3943 9.81583C12.1937 9.99352 11.9349 10.0914 11.667 10.091H6.738L6.61 10.084C6.34402 10.0531 6.09862 9.9257 5.92037 9.72589C5.74212 9.52607 5.64342 9.26777 5.643 9V5.727L5.65 5.6C5.68184 5.33397 5.8102 5.08886 6.01074 4.91118C6.21129 4.73349 6.47006 4.63558 6.738 4.636Z" fill="#485FC7"/>
</svg>

<svg width="30" height="30" fill="none" xmlns="http://www.w3.org/2000/svg"><path fill-rule="evenodd" clip-rule="evenodd" d="M24.262 3A2.733 2.733 0 0 1 27 5.727v7.637a2.733 2.733 0 0 1-2.738 2.727h-4.929a2.733 2.733 0 0 1-2.738-2.727V5.727A2.733 2.733 0 0 1 19.333 3h4.929Zm-9.857 13.636a2.733 2.733 0 0 0-2.738-2.727H6.738A2.733 2.733 0 0 0 4 16.636v7.637A2.733 2.733 0 0 0 6.738 27h4.929a2.733 2.733 0 0 0 2.738-2.727v-7.637ZM27 21a2.733 2.733 0 0 0-2.738-2.727h-4.929A2.733 2.733 0 0 0 16.595 21v3.273A2.733 2.733 0 0 0 19.333 27h4.929A2.733 2.733 0 0 0 27 24.273V21Zm-15.333-5.454H6.738c-.562 0-1.025.42-1.088.963l-.007.127v7.637c0 .56.423 1.02.967 1.083l.128.008h4.929c.561 0 1.024-.422 1.088-.964l.007-.127v-7.637c0-.56-.423-1.02-.968-1.083l-.127-.008v.001Zm7.666 4.363h4.929l.128.007c.544.063.967.524.967 1.084v3.273l-.007.127a1.094 1.094 0 0 1-1.088.964h-4.929l-.127-.008a1.093 1.093 0 0 1-.968-1.083V21l.008-.127a1.094 1.094 0 0 1 1.087-.964Zm0-15.273h4.929l.128.008c.544.063.967.524.967 1.083v7.637l-.007.127a1.094 1.094 0 0 1-1.088.963h-4.929l-.127-.007a1.093 1.093 0 0 1-.968-1.083V5.727l.008-.127a1.094 1.094 0 0 1 1.087-.964ZM11.667 3a2.733 2.733 0 0 1 2.738 2.727V9a2.733 2.733 0 0 1-2.738 2.727H6.738A2.733 2.733 0 0 1 4 9V5.727A2.733 2.733 0 0 1 6.738 3h4.929ZM6.738 4.636h4.929l.127.008c.545.063.968.524.968 1.083V9l-.007.127a1.094 1.094 0 0 1-1.088.964H6.738l-.128-.007A1.093 1.093 0 0 1 5.643 9V5.727L5.65 5.6a1.094 1.094 0 0 1 1.088-.964Z" fill="#485FC7"/></svg>
